X:351
T:Bury Fair. (p)1696.PLFD.351
M:4/4
L:1/8
Q:1/2=110
S:Playford, Dancing Master,9th Ed,1st Supp.,1696.
O:England
N:See Introduction for notes on the title..CGP
H:1696.
Z:Chris Partington
K:F
   d2 | c2A2 A2F2 | G4   C3d  | c2A2 A2GF | F4 F2 :|
|: f2 | c2f2 e2f2 | g2G2 G2f2 | c2f2 efge | f6 :|
|: c2 | dcBA BAGF | GFED C2c2 | dcBA BAGF | F6 :|
%%text 2nd & 3rd parts again
